communes/154.svg

<?xml version="1.0" encoding="UTF-8" standalone="no"?>
<svg
   xmlns:dc="http://purl.org/dc/elements/1.1/"
   xmlns:cc="http://creativecommons.org/ns#"
   xmlns:rdf="http://www.w3.org/1999/02/22-rdf-syntax-ns#"
   xmlns:svg="http://www.w3.org/2000/svg"
   xmlns="http://www.w3.org/2000/svg"
   xmlns:sodipodi="http://sodipodi.sourceforge.net/DTD/sodipodi-0.dtd"
   xmlns:inkscape="http://www.inkscape.org/namespaces/inkscape"
   version="1.0"
   width="215.34886"
   height="252.24773"
   id="svg2780"
   sodipodi:docname="154.svg">
  <metadata
     id="metadata25">
    <rdf:RDF>
      <cc:Work
         rdf:about="">
        <dc:format>image/svg+xml</dc:format>
        <dc:type
           rdf:resource="http://purl.org/dc/dcmitype/StillImage" />
      </cc:Work>
    </rdf:RDF>
  </metadata>
  <sodipodi:namedview
     pagecolor="#ffffff"
     bordercolor="#666666"
     borderopacity="1"
     objecttolerance="10"
     gridtolerance="10"
     guidetolerance="10"
     inkscape:pageopacity="0"
     inkscape:pageshadow="2"
     inkscape:window-width="640"
     inkscape:window-height="480"
     id="namedview23" />
  <defs
     id="defs2782" />
  <g
     transform="translate(-16.716535,-807.83029)"
     id="layer1">
    <path
       d="M 17.716535,808.83029 L 21.595601,971.78224 C 24.366356,1088.1766 224.41557,1088.1766 227.18634,971.78224 L 231.0654,808.83029 L 17.716535,808.83029 z"
       id="path3282"
       style="fill:#ce2918;fill-opacity:1;fill-rule:evenodd;stroke:#000000;stroke-width:2;stroke-linecap:butt;stroke-miterlimit:4;stroke-dashoffset:0;stroke-opacity:1" />
    <path
       d="M 84.755272,83.007998 C 103.9902,63.74085 118.09687,53.149604 126.38697,53.149604 C 134.92635,53.149604 147.53495,66.051022 165.52206,83.755839 C 183.63335,101.58289 194.88189,114.9662 194.88189,122.64142 C 194.88189,130.06736 188.75131,138.32832 165.0235,162.02983 C 141.29569,185.73133 133.4144,194.23286 124.01575,193.95563 C 114.86616,193.68575 94.905232,175.16766 83.25959,162.52839 C 71.489169,149.75369 54.59523,131.49915 54.187487,120.65328 C 53.761026,109.30955 65.644574,102.1507 84.755272,83.007998 z"
       transform="translate(0,804.33069)"
       id="rect5246"
       style="fill:#ffff00;fill-opacity:1;fill-rule:evenodd;stroke:#000000;stroke-width:1.00000012px;stroke-linecap:butt;stroke-linejoin:miter;marker:none;marker-start:none;marker-mid:none;marker-end:none;stroke-miterlimit:4;stroke-dashoffset:0;stroke-opacity:1;visibility:visible;display:inline;overflow:visible;enable-background:accumulate" />
    <path
       d="M 110.43113,25.424272 C 117.87606,24.499801 133.19651,24.531889 139.09835,26.172113 C 138.80178,35.287621 136.94289,43.670795 126.13578,47.85949 C 113.2074,45.51008 110.69364,30.442601 110.43113,25.424272 z"
       transform="translate(0,804.33069)"
       id="path5257"
       style="fill:#ffff00;fill-opacity:1;fill-rule:evenodd;stroke:#000000;stroke-width:1px;stroke-linecap:butt;stroke-linejoin:miter;stroke-opacity:1" />
    <path
       d="M 129.12715,829.63032 C 128.50395,836.11161 128.87787,847.45386 125.51258,851.75394 C 124.14154,849.57274 122.52122,835.36377 122.27194,829.00712"
       id="path5261"
       style="fill:none;fill-opacity:0.75;fill-rule:evenodd;stroke:#000000;stroke-width:1px;stroke-linecap:butt;stroke-linejoin:miter;stroke-opacity:1" />
    <path
       d="M 134.36203,829.50568 C 134.11275,835.98697 133.73883,847.07994 125.76186,852.12786 C 119.15594,848.32634 116.16458,836.48553 116.03993,829.63032"
       id="path5259"
       style="fill:none;fill-opacity:0.75;fill-rule:evenodd;stroke:#000000;stroke-width:1px;stroke-linecap:butt;stroke-linejoin:miter;stroke-opacity:1" />
    <path
       d="M 108.9343,1026.9326 C 116.37923,1027.8571 131.69968,1027.825 137.60152,1026.1848 C 137.30495,1017.0692 135.44606,1008.6861 124.63895,1004.4974 C 111.71057,1006.8468 109.19681,1021.9143 108.9343,1026.9326 z"
       id="path5269"
       style="fill:#ffff00;fill-opacity:1;fill-rule:evenodd;stroke:#000000;stroke-width:1px;stroke-linecap:butt;stroke-linejoin:miter;stroke-opacity:1" />
    <path
       d="M 127.63032,1027.0572 C 127.00712,1020.5759 127.38104,1009.2337 124.01575,1004.9336 C 122.64471,1007.1148 121.02439,1021.3238 120.77511,1027.6804"
       id="path5271"
       style="fill:none;fill-opacity:0.75;fill-rule:evenodd;stroke:#000000;stroke-width:1px;stroke-linecap:butt;stroke-linejoin:miter;stroke-opacity:1" />
    <path
       d="M 132.8652,1027.1819 C 132.61592,1020.7006 132.242,1009.6076 124.26503,1004.5597 C 117.65911,1008.3612 114.66775,1020.202 114.5431,1027.0572"
       id="path5273"
       style="fill:none;fill-opacity:0.75;fill-rule:evenodd;stroke:#000000;stroke-width:1px;stroke-linecap:butt;stroke-linejoin:miter;stroke-opacity:1" />
    <path
       d="M 223.05575,940.52598 C 223.98025,933.08105 223.94815,917.7606 222.30795,911.85876 C 213.19235,912.15533 204.80925,914.01422 200.62055,924.82133 C 202.96995,937.74971 218.03745,940.26347 223.05575,940.52598 z"
       id="path5281"
       style="fill:#ffff00;fill-opacity:1;fill-rule:evenodd;stroke:#000000;stroke-width:1px;stroke-linecap:butt;stroke-linejoin:miter;stroke-opacity:1" />
    <path
       d="M 223.18035,921.82996 C 216.69905,922.45316 205.35685,922.07924 201.05675,925.44453 C 203.23795,926.81557 217.44695,928.43589 223.80355,928.68517"
       id="path5283"
       style="fill:none;fill-opacity:0.75;fill-rule:evenodd;stroke:#000000;stroke-width:1px;stroke-linecap:butt;stroke-linejoin:miter;stroke-opacity:1" />
    <path
       d="M 223.30505,916.59508 C 216.82375,916.84436 205.73075,917.21828 200.68285,925.19525 C 204.48435,931.80117 216.32515,934.79253 223.18035,934.91718"
       id="path5285"
       style="fill:none;fill-opacity:0.75;fill-rule:evenodd;stroke:#000000;stroke-width:1px;stroke-linecap:butt;stroke-linejoin:miter;stroke-opacity:1" />
    <path
       d="M 25.62943,941.23105 C 24.70493,933.78612 24.73703,918.46567 26.37723,912.56383 C 35.49283,912.8604 43.87593,914.71929 48.06463,925.5264 C 45.71523,938.45478 30.64773,940.96854 25.62943,941.23105 z"
       id="path5287"
       style="fill:#ffff00;fill-opacity:1;fill-rule:evenodd;stroke:#000000;stroke-width:1px;stroke-linecap:butt;stroke-linejoin:miter;stroke-opacity:1" />
    <path
       d="M 25.50483,922.53503 C 31.98613,923.15823 43.32833,922.78431 47.62843,926.1496 C 45.44723,927.52064 31.23823,929.14096 24.88163,929.39024"
       id="path5289"
       style="fill:none;fill-opacity:0.75;fill-rule:evenodd;stroke:#000000;stroke-width:1px;stroke-linecap:butt;stroke-linejoin:miter;stroke-opacity:1" />
    <path
       d="M 25.38013,917.30015 C 31.86143,917.54943 42.95443,917.92335 48.00233,925.90032 C 44.20083,932.50624 32.36003,935.4976 25.50483,935.62225"
       id="path5291"
       style="fill:none;fill-opacity:0.75;fill-rule:evenodd;stroke:#000000;stroke-width:1px;stroke-linecap:butt;stroke-linejoin:miter;stroke-opacity:1" />
    <rect
       width="16.452494"
       height="6.7305655"
       rx="3.3652828"
       ry="3.3652828"
       x="117.66026"
       y="46.86237"
       transform="translate(0,804.33069)"
       id="rect5249"
       style="opacity:1;fill:#ffff00;fill-opacity:1;fill-rule:evenodd;stroke:#000000;stroke-width:1.00000012px;stroke-linecap:butt;stroke-linejoin:miter;marker:none;marker-start:none;marker-mid:none;marker-end:none;stroke-miterlimit:4;stroke-dasharray:none;stroke-dashoffset:0;stroke-opacity:1;visibility:visible;display:inline;overflow:visible;enable-background:accumulate" />
    <rect
       width="16.452494"
       height="6.7305655"
       rx="3.3652828"
       ry="3.3652828"
       x="114.91818"
       y="998.76697"
       id="rect5251"
       style="opacity:1;fill:#ffff00;fill-opacity:1;fill-rule:evenodd;stroke:#000000;stroke-width:1.00000012px;stroke-linecap:butt;stroke-linejoin:miter;marker:none;marker-start:none;marker-mid:none;marker-end:none;stroke-miterlimit:4;stroke-dasharray:none;stroke-dashoffset:0;stroke-opacity:1;visibility:visible;display:inline;overflow:visible;enable-background:accumulate" />
    <rect
       width="16.452494"
       height="6.7305655"
       rx="3.3652828"
       ry="3.3652828"
       x="918.12482"
       y="-201.61246"
       transform="matrix(0,1,-1,0,0,0)"
       id="rect5253"
       style="opacity:1;fill:#ffff00;fill-opacity:1;fill-rule:evenodd;stroke:#000000;stroke-width:1.00000012px;stroke-linecap:butt;stroke-linejoin:miter;marker:none;marker-start:none;marker-mid:none;marker-end:none;stroke-miterlimit:4;stroke-dasharray:none;stroke-dashoffset:0;stroke-opacity:1;visibility:visible;display:inline;overflow:visible;enable-background:accumulate" />
    <rect
       width="14.707541"
       height="6.7305655"
       rx="3.3652828"
       ry="3.3652828"
       x="918.62341"
       y="-53.789295"
       transform="matrix(0,1,-1,0,0,0)"
       id="rect5255"
       style="opacity:1;fill:#ffff00;fill-opacity:1;fill-rule:evenodd;stroke:#000000;stroke-width:1.00000012px;stroke-linecap:butt;stroke-linejoin:miter;marker:none;marker-start:none;marker-mid:none;marker-end:none;stroke-miterlimit:4;stroke-dasharray:none;stroke-dashoffset:0;stroke-opacity:1;visibility:visible;display:inline;overflow:visible;enable-background:accumulate" />
  </g>
</svg>

<?xml version="1.0" encoding="UTF-8"?>
<svg version="1.0" viewBox="0 0 215.35 252.25" xmlns="http://www.w3.org/2000/svg" xmlns:cc="http://creativecommons.org/ns#" xmlns:dc="http://purl.org/dc/elements/1.1/" xmlns:rdf="http://www.w3.org/1999/02/22-rdf-syntax-ns#">
<metadata>
<rdf:RDF>
<cc:Work rdf:about="">
<dc:format>image/svg+xml</dc:format>
<dc:type rdf:resource="http://purl.org/dc/dcmitype/StillImage"/>
</cc:Work>
</rdf:RDF>
</metadata>
<g transform="translate(-16.717 -807.83)" stroke="#000">
<path d="m17.717 808.83 3.8791 162.95c2.7708 116.39 202.82 116.39 205.59 0l3.8791-162.95h-213.35z" fill="#ce2918" fill-rule="evenodd" stroke-width="2"/>
<path transform="translate(0 804.33)" d="m84.755 83.008c19.235-19.267 33.342-29.858 41.632-29.858 8.5394 0 21.148 12.901 39.135 30.606 18.111 17.827 29.36 31.21 29.36 38.886 0 7.4259-6.1306 15.687-29.858 39.388-23.728 23.702-31.609 32.203-41.008 31.926-9.1496-0.26988-29.111-18.788-40.756-31.427-11.77-12.775-28.664-31.029-29.072-41.875-0.42646-11.344 11.457-18.503 30.568-37.645z" fill="#ff0" fill-rule="evenodd" stroke-width="1px"/>
<path transform="translate(0 804.33)" d="m110.43 25.424c7.4449-0.92447 22.765-0.89238 28.667 0.74784-0.29657 9.1155-2.1555 17.499-12.963 21.687-12.928-2.3494-15.442-17.417-15.705-22.435z" fill="#ff0" fill-rule="evenodd" stroke-width="1px"/>
<path d="m129.13 829.63c-0.6232 6.4813-0.24928 17.824-3.6146 22.124-1.371-2.1812-2.9914-16.39-3.2406-22.747" fill="none" stroke-width="1px"/>
<path d="m134.36 829.51c-0.24928 6.4813-0.6232 17.574-8.6002 22.622-6.6059-3.8015-9.5973-15.642-9.7219-22.498" fill="none" stroke-width="1px"/>
<path d="m108.93 1026.9c7.4449 0.9245 22.765 0.8924 28.667-0.7478-0.29657-9.1156-2.1555-17.499-12.963-21.687-12.928 2.3494-15.442 17.417-15.705 22.435z" fill="#ff0" fill-rule="evenodd" stroke-width="1px"/>
<path d="m127.63 1027.1c-0.6232-6.4813-0.24928-17.824-3.6146-22.124-1.371 2.1812-2.9914 16.39-3.2406 22.747" fill="none" stroke-width="1px"/>
<path d="m132.87 1027.2c-0.24928-6.4813-0.6232-17.574-8.6002-22.622-6.6059 3.8015-9.5973 15.642-9.7219 22.498" fill="none" stroke-width="1px"/>
<path d="m223.06 940.53c0.9245-7.4449 0.8924-22.765-0.7478-28.667-9.1156 0.29657-17.499 2.1555-21.687 12.963 2.3494 12.928 17.417 15.442 22.435 15.705z" fill="#ff0" fill-rule="evenodd" stroke-width="1px"/>
<path d="m223.18 921.83c-6.4813 0.6232-17.824 0.24928-22.124 3.6146 2.1812 1.371 16.39 2.9914 22.747 3.2406" fill="none" stroke-width="1px"/>
<path d="m223.31 916.6c-6.4813 0.24928-17.574 0.6232-22.622 8.6002 3.8015 6.6059 15.642 9.5973 22.498 9.7219" fill="none" stroke-width="1px"/>
<path d="m25.629 941.23c-0.9245-7.4449-0.8924-22.765 0.7478-28.667 9.1156 0.29657 17.499 2.1555 21.687 12.963-2.3494 12.928-17.417 15.442-22.435 15.705z" fill="#ff0" fill-rule="evenodd" stroke-width="1px"/>
<path d="m25.505 922.54c6.4813 0.6232 17.824 0.24928 22.124 3.6146-2.1812 1.371-16.39 2.9914-22.747 3.2406" fill="none" stroke-width="1px"/>
<path d="m25.38 917.3c6.4813 0.24928 17.574 0.6232 22.622 8.6002-3.8015 6.6059-15.642 9.5973-22.498 9.7219" fill="none" stroke-width="1px"/>
<rect transform="translate(0 804.33)" x="117.66" y="46.862" width="16.452" height="6.7306" rx="3.3653" ry="3.3653" fill="#ff0" fill-rule="evenodd" stroke-width="1px"/>
<rect x="114.92" y="998.77" width="16.452" height="6.7306" rx="3.3653" ry="3.3653" fill="#ff0" fill-rule="evenodd" stroke-width="1px"/>
<rect transform="rotate(90)" x="918.12" y="-201.61" width="16.452" height="6.7306" rx="3.3653" ry="3.3653" fill="#ff0" fill-rule="evenodd" stroke-width="1px"/>
<rect transform="rotate(90)" x="918.62" y="-53.789" width="14.708" height="6.7306" rx="3.3653" ry="3.3653" fill="#ff0" fill-rule="evenodd" stroke-width="1px"/>
</g>
</svg>
